X: 1
T:Ciara McCarthy's Lullaby
C:Phil Cunningham
M:C
L:1/8
K:D
a2|b3 a g3 f|a3 f A3 A| B3 A d2 f2| a3 b a3g/2f/2d3|
b3 a/2f/2 g3 f| e3 f A3 d/2c/2| B3 e d2 B2| A6 :|
|: A2| B3 e d2 B2| A3 F A2 d2 | e3 f a2 b2| e3 f e2 f e/2d/2|
A3 B e4| d3 B d3 e/2f/2| A3 e d2 B2| A6 :|
